src/assets/images/call.svg

<svg width="44" height="44" viewBox="0 0 44 44" fill="none" xmlns="http://www.w3.org/2000/svg">
<path d="M24.7964 7.89436C24.8431 7.71986 24.9237 7.55626 25.0336 7.41292C25.1435 7.26958 25.2806 7.1493 25.437 7.05896C25.5935 6.96862 25.7662 6.90999 25.9453 6.88641C26.1243 6.86283 26.3063 6.87477 26.4808 6.92155C29.0298 7.58662 31.3555 8.91915 33.2182 10.7819C35.081 12.6447 36.4135 14.9703 37.0786 17.5194C37.1254 17.6938 37.1373 17.8758 37.1138 18.0549C37.0902 18.234 37.0315 18.4067 36.9412 18.5631C36.8509 18.7195 36.7306 18.8566 36.5872 18.9665C36.4439 19.0765 36.2803 19.1571 36.1058 19.2037C35.9897 19.2342 35.8701 19.2498 35.75 19.2501C35.447 19.2501 35.1525 19.15 34.9123 18.9654C34.672 18.7808 34.4994 18.522 34.4214 18.2292C33.879 16.1483 32.7915 14.2498 31.2709 12.7292C29.7504 11.2087 27.8518 10.1212 25.771 9.57873C25.5963 9.53224 25.4325 9.45178 25.289 9.34193C25.1455 9.23209 25.025 9.09503 24.9345 8.93859C24.844 8.78215 24.7852 8.6094 24.7615 8.43022C24.7378 8.25104 24.7497 8.06895 24.7964 7.89436ZM24.396 15.0787C26.7661 15.7112 28.2889 17.234 28.9214 19.6042C28.9994 19.897 29.172 20.1558 29.4123 20.3404C29.6525 20.525 29.947 20.6251 30.25 20.6251C30.3701 20.6248 30.4897 20.6092 30.6058 20.5787C30.7803 20.5321 30.9439 20.4515 31.0872 20.3415C31.2306 20.2316 31.3509 20.0945 31.4412 19.9381C31.5315 19.7817 31.5902 19.609 31.6138 19.4299C31.6373 19.2508 31.6254 19.0688 31.5786 18.8944C30.6986 15.6012 28.3989 13.3015 25.1058 12.4215C24.7534 12.3274 24.3781 12.3771 24.0624 12.5597C23.7467 12.7423 23.5164 13.0429 23.4223 13.3952C23.3282 13.7476 23.3779 14.1229 23.5605 14.4386C23.743 14.7544 24.0436 14.9846 24.396 15.0787ZM38.4794 31.467C38.1729 33.796 37.0292 35.9337 35.2617 37.481C33.4943 39.0283 31.224 39.8793 28.875 39.8751C15.2281 39.8751 4.12502 28.772 4.12502 15.1251C4.1208 12.7761 4.97182 10.5059 6.51912 8.73843C8.06642 6.97099 10.2042 5.82723 12.5331 5.52077C13.1221 5.44885 13.7185 5.56934 14.2333 5.86424C14.7481 6.15914 15.1538 6.61263 15.3897 7.15702L19.0197 15.2609V15.2815C19.2003 15.6983 19.2749 16.1532 19.2368 16.6058C19.1987 17.0584 19.0491 17.4945 18.8014 17.8751C18.7705 17.9215 18.7378 17.9645 18.7035 18.0075L15.125 22.2494C16.4124 24.8653 19.1486 27.5775 21.7989 28.8683L25.9824 25.3087C26.0234 25.2742 26.0665 25.2421 26.1113 25.2125C26.4916 24.9588 26.9292 24.8039 27.3845 24.7619C27.8397 24.7199 28.2983 24.7921 28.7186 24.9719L28.741 24.9822L36.838 28.6105C37.3833 28.8455 37.8379 29.2508 38.1338 29.7657C38.4297 30.2806 38.5509 30.8775 38.4794 31.467ZM35.75 31.1233C35.75 31.1233 35.738 31.1233 35.7311 31.1233L27.653 27.5053L23.4678 31.0648C23.4272 31.0992 23.3848 31.1314 23.3406 31.1611C22.9449 31.4251 22.4875 31.5819 22.013 31.6163C21.5385 31.6506 21.0632 31.5613 20.6336 31.357C17.4144 29.8015 14.2055 26.6167 12.6483 23.4319C12.4421 23.0054 12.3496 22.5328 12.3797 22.0601C12.4098 21.5873 12.5615 21.1303 12.8202 20.7334C12.8493 20.6868 12.8821 20.6426 12.9181 20.6011L16.5 16.354L12.8906 8.27592C12.89 8.26906 12.89 8.26216 12.8906 8.2553C11.2239 8.47272 9.69356 9.29027 8.58622 10.5548C7.47889 11.8194 6.87051 13.4443 6.87502 15.1251C6.88138 20.9579 9.20128 26.55 13.3257 30.6745C17.4501 34.7989 23.0422 37.1188 28.875 37.1251C30.5548 37.1309 32.1793 36.5247 33.4446 35.4197C34.7099 34.3148 35.5294 32.7868 35.75 31.1215V31.1233Z" fill="white"/>
</svg>

<svg xmlns="http://www.w3.org/2000/svg" width="44" height="44" fill="none"><path fill="#fff" d="M24.796 7.894a1.376 1.376 0 0 1 1.685-.972 14.82 14.82 0 0 1 10.598 10.597 1.376 1.376 0 1 1-2.658.71 12.09 12.09 0 0 0-8.65-8.65 1.374 1.374 0 0 1-.975-1.685m-.4 7.185c2.37.632 3.893 2.155 4.525 4.525a1.375 1.375 0 1 0 2.658-.71c-.88-3.293-3.18-5.592-6.473-6.472a1.375 1.375 0 0 0-.71 2.657m14.083 16.388a9.67 9.67 0 0 1-9.604 8.408c-13.647 0-24.75-11.103-24.75-24.75a9.67 9.67 0 0 1 8.408-9.604 2.75 2.75 0 0 1 2.857 1.636l3.63 8.104v.02a2.75 2.75 0 0 1-.219 2.594q-.045.07-.098.133l-3.578 4.241c1.287 2.616 4.024 5.329 6.674 6.62l4.183-3.56q.062-.052.13-.097a2.75 2.75 0 0 1 2.607-.24l.022.01 8.097 3.628a2.75 2.75 0 0 1 1.641 2.857m-2.729-.344h-.019l-8.078-3.618-4.185 3.56q-.06.051-.127.096a2.75 2.75 0 0 1-2.707.196c-3.22-1.555-6.428-4.74-7.986-7.925a2.75 2.75 0 0 1 .172-2.699q.044-.069.098-.132l3.582-4.247-3.61-8.078v-.02a6.91 6.91 0 0 0-6.015 6.87 22.024 22.024 0 0 0 22 22 6.91 6.91 0 0 0 6.875-6.004z"/></svg>
